small/extra/apps/standard/landscape.svg

<?xml version="1.0" encoding="UTF-8" standalone="no"?>
<!-- Created with Inkscape (http://www.inkscape.org/) -->
<svg id="svg2" xmlns:rdf="http://www.w3.org/1999/02/22-rdf-syntax-ns#" xmlns="http://www.w3.org/2000/svg" height="100%" width="100%" version="1.1" xmlns:cc="http://creativecommons.org/ns#" xmlns:dc="http://purl.org/dc/elements/1.1/" viewBox="0 0 512 512">
 <metadata id="metadata139">
  <rdf:RDF>
   <cc:Work rdf:about="">
    <dc:format>image/svg+xml</dc:format>
    <dc:type rdf:resource="http://purl.org/dc/dcmitype/StillImage"/>
    <dc:title/>
   </cc:Work>
  </rdf:RDF>
 </metadata>
 <text id="text11" style="word-spacing:0;letter-spacing:0" font-size="129.23px" line-height="125%" y="109.98" x="206.71001" font-family="Gentium Book Basic">
  <tspan id="tspan13" y="109.98" x="206.71001"/>
 </text>
 <text id="text15" style="text-anchor:middle" transform="scale(4.0128 .2492)" font-size="46.954px" y="92.169998" x="248.59" font-family="Arial"/>
 <text id="text17" style="word-spacing:0;letter-spacing:0" font-size="129.23px" line-height="125%" y="29.981001" x="787.97998" font-family="Gentium Book Basic">
  <tspan id="tspan19" y="29.981001" x="787.97998"/>
 </text>
 <text id="text21" style="text-anchor:middle" transform="scale(4.0128 .2492)" font-size="46.954px" y="-228.85001" x="393.44" font-family="Arial"/>
 <text id="text23" style="word-spacing:0;letter-spacing:0" font-size="129.23px" line-height="125%" y="-151.28" x="-283.60001" font-family="Gentium Book Basic">
  <tspan id="tspan25" y="-151.28" x="-283.60001"/>
 </text>
 <text id="text27" style="text-anchor:middle" transform="scale(4.0128 .2492)" font-size="46.954px" y="-956.21002" x="126.4" font-family="Arial"/>
 <text id="text29" style="word-spacing:0;letter-spacing:0" font-size="129.23px" line-height="125%" y="-367.75" x="814.45001" font-family="Gentium Book Basic">
  <tspan id="tspan31" y="-367.75" x="814.45001"/>
 </text>
 <text id="text33" style="text-anchor:middle" transform="scale(4.0128 .2492)" font-size="46.954px" y="-1824.88" x="400.04001" font-family="Arial"/>
 <text id="text35" style="word-spacing:0;letter-spacing:0" font-size="129.23px" line-height="125%" y="-447.76001" x="1395.72" font-family="Gentium Book Basic">
  <tspan id="tspan37" y="-447.76001" x="1395.72"/>
 </text>
 <text id="text39" style="text-anchor:middle" transform="scale(4.0128 .2492)" font-size="46.954px" y="-2145.9099" x="544.89001" font-family="Arial"/>
 <text id="text41" style="word-spacing:0;letter-spacing:0" font-size="129.23px" line-height="125%" y="-920.15997" x="1006.6" font-family="Gentium Book Basic">
  <tspan id="tspan43" y="-920.15997" x="1006.6"/>
 </text>
 <text id="text45" style="text-anchor:middle" transform="scale(4.0128 .2492)" font-size="46.954px" y="-4041.5701" x="447.92001" font-family="Arial"/>
 <text id="text47" style="word-spacing:0;letter-spacing:0" font-size="129.23px" line-height="125%" y="-1000.16" x="1587.86" font-family="Gentium Book Basic">
  <tspan id="tspan49" y="-1000.16" x="1587.86"/>
 </text>
 <text id="text51" style="text-anchor:middle" transform="scale(4.0128 .2492)" font-size="46.954px" y="-4362.5898" x="592.77002" font-family="Arial"/>
 <text id="text53" style="word-spacing:0;letter-spacing:0" font-size="208.33px" line-height="125%" y="414.56" x="-244.94" font-family="Gentium Book Basic">
  <tspan id="tspan55" y="414.56" x="-244.94"/>
 </text>
 <path id="path9-6" d="m26 0c-14.397 0-26 11.603-26 26v460c0 14.397 11.603 26 26 26h460c14.397 0 26-11.603 26-26v-460c0-14.397-11.6-26-26-26h-460" fill="#8a005a"/>
 <text id="text11-4" font-size="129.23px" style="word-spacing:0;letter-spacing:0" line-height="125%" y="134.53" x="-305.66" font-family="&apos;Gentium Book Basic&apos;">
  <tspan id="tspan13-7" y="134.53" x="-305.66"/>
 </text>
 <text id="text15-1" style="text-anchor:middle" transform="scale(4.0128 .24920)" font-size="46.954px" y="190.66902" x="120.90939" font-family="Arial"/>
 <text id="text17-0" font-size="129.23px" style="word-spacing:0;letter-spacing:0" line-height="125%" y="54.529999" x="275.60999" font-family="&apos;Gentium Book Basic&apos;">
  <tspan id="tspan19-3" y="54.529999" x="275.60999"/>
 </text>
 <text id="text21-7" style="text-anchor:middle" transform="scale(4.0128 .24920)" font-size="46.954px" y="-130.35933" x="265.75864" font-family="Arial"/>
 <text id="text23-8" font-size="129.23px" style="word-spacing:0;letter-spacing:0" line-height="125%" y="-126.74" x="-795.96997" font-family="&apos;Gentium Book Basic&apos;">
  <tspan id="tspan25-9" y="-126.74" x="-795.96997"/>
 </text>
 <text id="text27-2" style="text-anchor:middle" transform="scale(4.0128 .24920)" font-size="46.954px" y="-857.71558" x="-1.2799934" font-family="Arial"/>
 <text id="text29-1" font-size="129.23px" style="word-spacing:0;letter-spacing:0" line-height="125%" y="-343.20001" x="302.07999" font-family="&apos;Gentium Book Basic&apos;">
  <tspan id="tspan31-5" y="-343.20001" x="302.07999"/>
 </text>
 <text id="text33-8" style="text-anchor:middle" transform="scale(4.0128 .24920)" font-size="46.954px" y="-1726.3712" x="272.35858" font-family="Arial"/>
 <text id="text35-2" font-size="129.23px" style="word-spacing:0;letter-spacing:0" line-height="125%" y="-423.20999" x="883.34998" font-family="&apos;Gentium Book Basic&apos;">
  <tspan id="tspan37-9" y="-423.20999" x="883.34998"/>
 </text>
 <text id="text39-8" style="text-anchor:middle" transform="scale(4.0128 .24920)" font-size="46.954px" y="-2047.4095" x="417.20786" font-family="Arial"/>
 <text id="text41-2" font-size="129.23px" style="word-spacing:0;letter-spacing:0" line-height="125%" y="-895.60999" x="494.23001" font-family="&apos;Gentium Book Basic&apos;">
  <tspan id="tspan43-2" y="-895.60999" x="494.23001"/>
 </text>
 <text id="text45-8" style="text-anchor:middle" transform="scale(4.0128 .24920)" font-size="46.954px" y="-3943.0498" x="320.23834" font-family="Arial"/>
 <text id="text47-8" font-size="129.23px" style="word-spacing:0;letter-spacing:0" line-height="125%" y="-975.60999" x="1075.49" font-family="&apos;Gentium Book Basic&apos;">
  <tspan id="tspan49-2" y="-975.60999" x="1075.49"/>
 </text>
 <text id="text51-5" style="text-anchor:middle" transform="scale(4.0128 .24920)" font-size="46.954px" y="-4264.0781" x="465.08762" font-family="Arial"/>
 <text id="text53-0" font-size="208.33px" style="word-spacing:0;letter-spacing:0" line-height="125%" y="439.10999" x="-757.31" font-family="&apos;Gentium Book Basic&apos;">
  <tspan id="tspan55-3" y="439.10999" x="-757.31"/>
 </text>
 <path id="path59-8" opacity=".25" style="color:#000000" d="m255.98 40.996l69.4 69.394h-0.01l-69.39-69.39c-118.74 0-214.98 96.24-214.98 214.98 0 59.38 24.07 113.15 62.98 152.06l0.17 0.16c-0.06-0.05-0.11-0.11-0.17-0.16l103.96 103.96h278.06c14.4 0 26-11.6 26-26v-278.06l-103.96-103.96c-38.92-38.915-92.68-62.984-152.06-62.984z"/>
 <path id="path83" style="color:#000000" d="m255.98 41c-118.74 0-214.98 96.24-214.98 214.98s96.24 215.02 214.98 215.02 215.02-96.28 215.02-215.02-96.28-214.98-215.02-214.98m0 53.733c89.05 0 161.24 72.19 161.24 161.24s-72.19 161.29-161.24 161.29-161.24-72.23-161.24-161.29c0-89.05 72.19-161.24 161.24-161.24m3.5448 40.393a120.93 120.93 0 0 0 -124.44 120.85 120.93 120.93 0 0 0 241.84 0 120.93 120.93 0 0 0 -117.4 -120.85" fill="#fff"/>
</svg>

<?xml version="1.0" encoding="UTF-8" standalone="no"?>
<!-- Created with Inkscape (http://www.inkscape.org/) -->

<svg
   xmlns:dc="http://purl.org/dc/elements/1.1/"
   xmlns:cc="http://creativecommons.org/ns#"
   xmlns:rdf="http://www.w3.org/1999/02/22-rdf-syntax-ns#"
   xmlns:svg="http://www.w3.org/2000/svg"
   xmlns="http://www.w3.org/2000/svg"
   xmlns:inkscape="http://www.inkscape.org/namespaces/inkscape"
   version="1.1"
   width="100%"
   height="100%"
   viewBox="0 0 512 512"
   id="svg2">
  <metadata
     id="metadata87">
    <rdf:RDF>
      <cc:Work
         rdf:about="">
        <dc:format>image/svg+xml</dc:format>
        <dc:type
           rdf:resource="http://purl.org/dc/dcmitype/StillImage" />
      </cc:Work>
    </rdf:RDF>
  </metadata>
  <defs
     id="defs4">
    <clipPath
       id="0">
      <path
         d="M 26,0 C 11.603,0 0,11.603 0,26 v 460 c 0,14.397 11.603,26 26,26 h 460 c 14.397,0 26,-11.603 26,-26 V 26 C 512,11.603 500.397,0 486,0 H 26"
         inkscape:connector-curvature="0"
         id="path7" />
    </clipPath>
  </defs>
  <path
     d="M 26,0 C 11.603,0 0,11.603 0,26 v 460 c 0,14.397 11.603,26 26,26 h 460 c 14.397,0 26,-11.603 26,-26 V 26 C 512,11.603 500.397,0 486,0 H 26"
     inkscape:connector-curvature="0"
     id="path9"
     style="fill:#8a005a" />
  <text
     x="-305.66"
     y="134.53"
     id="text11"
     style="font-size:129.22999573px;line-height:125%;letter-spacing:0;word-spacing:0;font-family:Gentium Book Basic">
    <tspan
       x="-305.66"
       y="134.53"
       id="tspan13" />
  </text>
  <text
     x="120.91"
     y="190.67"
     transform="scale(4.0128,0.2492)"
     id="text15"
     style="font-size:46.95399857px;text-anchor:middle;font-family:Arial" />
  <text
     x="275.60999"
     y="54.529999"
     id="text17"
     style="font-size:129.22999573px;line-height:125%;letter-spacing:0;word-spacing:0;font-family:Gentium Book Basic">
    <tspan
       x="275.60999"
       y="54.529999"
       id="tspan19" />
  </text>
  <text
     x="265.76001"
     y="-130.36"
     transform="scale(4.0128,0.2492)"
     id="text21"
     style="font-size:46.95399857px;text-anchor:middle;font-family:Arial" />
  <text
     x="-795.96997"
     y="-126.74"
     id="text23"
     style="font-size:129.22999573px;line-height:125%;letter-spacing:0;word-spacing:0;font-family:Gentium Book Basic">
    <tspan
       x="-795.96997"
       y="-126.74"
       id="tspan25" />
  </text>
  <text
     x="-1.28"
     y="-857.71997"
     transform="scale(4.0128,0.2492)"
     id="text27"
     style="font-size:46.95399857px;text-anchor:middle;font-family:Arial" />
  <text
     x="302.07999"
     y="-343.20001"
     id="text29"
     style="font-size:129.22999573px;line-height:125%;letter-spacing:0;word-spacing:0;font-family:Gentium Book Basic">
    <tspan
       x="302.07999"
       y="-343.20001"
       id="tspan31" />
  </text>
  <text
     x="272.35999"
     y="-1726.38"
     transform="scale(4.0128,0.2492)"
     id="text33"
     style="font-size:46.95399857px;text-anchor:middle;font-family:Arial" />
  <text
     x="883.34998"
     y="-423.20999"
     id="text35"
     style="font-size:129.22999573px;line-height:125%;letter-spacing:0;word-spacing:0;font-family:Gentium Book Basic">
    <tspan
       x="883.34998"
       y="-423.20999"
       id="tspan37" />
  </text>
  <text
     x="417.20999"
     y="-2047.42"
     transform="scale(4.0128,0.2492)"
     id="text39"
     style="font-size:46.95399857px;text-anchor:middle;font-family:Arial" />
  <text
     x="494.23001"
     y="-895.60999"
     id="text41"
     style="font-size:129.22999573px;line-height:125%;letter-spacing:0;word-spacing:0;font-family:Gentium Book Basic">
    <tspan
       x="494.23001"
       y="-895.60999"
       id="tspan43" />
  </text>
  <text
     x="320.23999"
     y="-3943.0701"
     transform="scale(4.0128,0.2492)"
     id="text45"
     style="font-size:46.95399857px;text-anchor:middle;font-family:Arial" />
  <text
     x="1075.49"
     y="-975.60999"
     id="text47"
     style="font-size:129.22999573px;line-height:125%;letter-spacing:0;word-spacing:0;font-family:Gentium Book Basic">
    <tspan
       x="1075.49"
       y="-975.60999"
       id="tspan49" />
  </text>
  <text
     x="465.09"
     y="-4264.1001"
     transform="scale(4.0128,0.2492)"
     id="text51"
     style="font-size:46.95399857px;text-anchor:middle;font-family:Arial" />
  <text
     x="-757.31"
     y="439.10999"
     id="text53"
     style="font-size:208.33000183px;line-height:125%;letter-spacing:0;word-spacing:0;font-family:Gentium Book Basic">
    <tspan
       x="-757.31"
       y="439.10999"
       id="tspan55" />
  </text>
  <g
     clip-path="url(#0)"
     id="g57"
     style="opacity:0.25;color:#000000">
    <path
       d="M 255.98,41 C 137.24,41 41,137.24 41,255.98 l 353.55,353.55 c 0,-118.74 96.24,-214.98 214.98,-214.98 z"
       inkscape:connector-curvature="0"
       id="path59" />
    <path
       d="m 41,255.98 c 0,59.38 24.07,113.15 62.984,152.06 l 353.55,353.55 C 418.619,722.675 394.55,668.91 394.55,609.53 z"
       inkscape:connector-curvature="0"
       id="path61" />
    <path
       d="m 103.98,408.04 c 38.9,38.9 92.63,62.961 151.99,62.961 l 353.55,353.55 c -59.36,0 -113.09,-24.06 -151.99,-62.961 z"
       inkscape:connector-curvature="0"
       id="path63" />
    <path
       d="M 255.98,471 C 374.72,471 471,374.72 471,255.98 l 353.55,353.55 c 0,118.74 -96.28,215.02 -215.02,215.02 z"
       inkscape:connector-curvature="0"
       id="path65" />
    <path
       d="m 471,255.98 c 0,-59.36 -24.06,-113.09 -62.961,-151.99 l 353.55,353.55 c 38.9,38.9 62.961,92.63 62.961,151.99 z"
       inkscape:connector-curvature="0"
       id="path67" />
    <path
       d="M 408.04,103.98 C 369.125,65.065 315.36,40.996 255.98,40.996 l 353.55,353.55 c 59.38,0 113.15,24.07 152.06,62.984 z"
       inkscape:connector-curvature="0"
       id="path69" />
    <path
       d="m 255.98,94.73 c 44.526,0 84.84,18.05 114.02,47.23 L 723.55,495.51 C 694.37,466.33 654.06,448.28 609.53,448.28 z"
       inkscape:connector-curvature="0"
       id="path71" />
    <path
       d="m 369.99,141.96 c 29.18,29.18 47.23,69.49 47.23,114.02 l 353.55,353.55 c 0,-44.528 -18.05,-84.84 -47.23,-114.02 z"
       inkscape:connector-curvature="0"
       id="path73" />
    <path
       d="m 417.22,255.98 c 0,89.05 -72.19,161.29 -161.24,161.29 l 353.55,353.55 c 89.06,0 161.24,-72.24 161.24,-161.29 z"
       inkscape:connector-curvature="0"
       id="path75" />
    <path
       d="m 255.98,417.27 c -44.515,0 -84.82,-18.05 -113.99,-47.23 l 353.55,353.55 c 29.18,29.18 69.48,47.23 113.99,47.23 z"
       inkscape:connector-curvature="0"
       id="path77" />
    <path
       d="M 141.98,370.04 C 112.79,340.85 94.73,300.52 94.73,255.98 l 353.55,353.55 c 0,44.54 18.06,84.87 47.25,114.06 z"
       inkscape:connector-curvature="0"
       id="path79" />
    <path
       d="m 94.73,255.98 c 0,-89.05 72.19,-161.24 161.24,-161.24 l 353.55,353.55 c -89.06,0 -161.24,72.19 -161.24,161.24 z"
       inkscape:connector-curvature="0"
       id="path81" />
  </g>
  <path
     d="M 255.98,41 C 137.24,41 41,137.24 41,255.98 41,374.72 137.24,471 255.98,471 374.72,471 471,374.72 471,255.98 471,137.24 374.72,41 255.98,41 m 0,53.733 c 89.05,0 161.24,72.19 161.24,161.24 0,89.05 -72.19,161.29 -161.24,161.29 -89.05,0 -161.24,-72.23 -161.24,-161.29 0,-89.05 72.19,-161.24 161.24,-161.24 m 3.54485,40.39267 a 120.93065,120.93065 0 0 0 -124.443,120.8515 120.93065,120.93065 0 0 0 241.84294,0 120.93065,120.93065 0 0 0 -117.39994,-120.8515"
     inkscape:connector-curvature="0"
     id="path83"
     style="color:#000000;fill:#ffffff" />
</svg>
